svgs/solid/folder-medical.svg

<svg xmlns="http://www.w3.org/2000/svg" viewBox="0 0 512 512"><!-- Font Awesome Pro 6.0.0-alpha2 by @fontawesome - https://fontawesome.com License - https://fontawesome.com/license (Commercial License) --><path d="M464 96H272L208 32H48C21.5 32 0 53.5 0 80V432C0 458.5 21.5 480 48 480H464C490.5 480 512 458.5 512 432V144C512 117.5 490.5 96 464 96ZM352 306.285C352 313.859 345.859 320 338.285 320H288V370.285C288 377.859 281.859 384 274.285 384H237.715C230.141 384 224 377.859 224 370.285V320H173.715C166.141 320 160 313.859 160 306.285V269.711C160 262.141 166.141 256 173.715 256H224V205.711C224 198.141 230.141 192 237.715 192H274.285C281.859 192 288 198.141 288 205.711V256H338.285C345.859 256 352 262.141 352 269.711V306.285Z"/></svg>

<svg xmlns="http://www.w3.org/2000/svg" viewBox="0 0 512 512"><!--! Font Awesome Pro 6.0.0-alpha3 by @fontawesome - https://fontawesome.com License - https://fontawesome.com/license (Commercial License) --><path d="M464 96h-192l-64-64h-160C21.5 32 0 53.5 0 80v352C0 458.5 21.5 480 48 480h416c26.5 0 48-21.5 48-48v-288C512 117.5 490.5 96 464 96zM352 306.3C352 313.9 345.9 320 338.3 320L288 319.1v50.29C288 377.9 281.9 384 274.3 384H237.7C230.1 384 224 377.9 224 370.3V319.1L173.7 320C166.1 320 160 313.9 160 306.3V269.7C160 262.1 166.1 256 173.7 256H224V205.7C224 198.1 230.1 192 237.7 192h36.57C281.9 192 288 198.1 288 205.7V256h50.29C345.9 256 352 262.1 352 269.7V306.3z"/></svg>
